!!!SOCIAL_FUNCTION:	songs with treatment of the sick
!!!PDT:	1943
!!!OTL: No_19_I_Am_Going_to_Make_You_Better.krn
!!!REG: British Columbia
**kern	**kern
*staff2	*staff1
=1-	=1-
*clefF4	*clefF4
*k[f#c#g#d#a#]	*k[f#c#g#d#a#]
*M2/4	*M2/4
16GG#/LL	8.r
16GG#/	.
16GG#/	.
16GG#/JJ	16B\
16GG#/LL	8.c#\L
16GG#/	.
16GG#/	.
16GG#/JJ	16d#\Jk
=2	=2
16GG#/LL	4d#\
16GG#/	.
16GG#/	.
16GG#/JJ	.
4r	8.d#\L
.	16d#\Jk
=3	=3
2r	8d#\L
.	8c#\J
.	8.r
.	16d#\
=4!|:	=4!|:
2r	4d#\
.	12e\L
.	12d#\
.	12c#\J
=5||	=5||
*M3/4	*M3/4
2.r	4c#\
.	12d#\L
.	12c#\
.	24B\Jk
.	48r
.	48B\
.	8B\L
.	8c#\J
=6||	=6||
*M2/4	*M2/4
2r	4d#\
.	8.r
.	16d#\
=7	=7
2r	4d#\
.	16d#\LK
.	8c#\
.	16c#\Jk
=8	=8
2r	8c#\L
.	[8B\J
.	8B\]
.	16r
.	16G#\
=9	=9
2r	8c#\L
.	8c#\J
.	8c#\L
.	8c#\J
=10	=10
2r	4B\
.	8.r
.	16G#\
=11	=11
2r	8.c#\L
.	16c#\Jk
.	16c#\LL
.	16d#\
.	16c#\
.	16B\JJ
=12||	=12||
*M3/8	*M3/8
4.r	4B\
.	8c#\
=13||	=13||
*M5/8	*M5/8
3...r	4B\
.	16B\LL
.	16c#\J
.	8B\J
.	16r
.	16c#\
=14||	=14||
*M3/4	*M3/4
2.r	4c#\
.	12d#\L
.	12c#\
.	12B\J
.	16B\LK
.	8.c#\J
=15	=15
2.r	2d#\
.	8.r
.	16c#\
=16	=16
2.r	8.c#\L
.	16d#\Jk
.	4d#\
.	8.d#\L
.	16d#\Jk
=17||	=17||
*M2/4	*M2/4
2r	8d#\L
.	[8c#\J
.	8c#\]
.	16r
.	16d#\
==:|!	==:|!
*-	*-
